swiss/communes/0060.svg

<?xml version="1.0" encoding="UTF-8" standalone="no"?>
<!-- Created with Inkscape (http://www.inkscape.org/) -->
<svg
   xmlns:svg="http://www.w3.org/2000/svg"
   xmlns="http://www.w3.org/2000/svg"
   xmlns:xlink="http://www.w3.org/1999/xlink"
   version="1.0"
   width="206.67696"
   height="242.08986"
   id="svg2780">
  <defs
     id="defs2782" />
  <g
     transform="translate(-20.648037,-812.77281)"
     id="layer1">
    <path
       d="M 21.648037,813.77281 L 25.369432,970.11039 C 28.027565,1081.7801 219.94546,1081.7801 222.6036,970.11039 L 226.325,813.77281 L 21.648037,813.77281 z"
       id="path3282"
       style="fill:#2161c1;fill-opacity:1;fill-rule:evenodd;stroke:#000000;stroke-width:1.99999988;stroke-linecap:butt;stroke-miterlimit:4;stroke-dashoffset:0;stroke-opacity:1" />
    <use
       transform="matrix(-1,0,0,1,247.97304,0)"
       id="use5359"
       x="0"
       y="0"
       width="248.03149"
       height="248.03149"
       xlink:href="#g4639" />
    <g
       transform="matrix(0.760684,-0.6491224,0.6491224,0.760684,-573.4377,304.80847)"
       id="g4639"
       style="fill:#ffffff;fill-opacity:1">
      <path
         d="M 123.27802,870.90289 C 120.69163,870.90289 117.17695,865.45108 116.69298,860.98912 C 116.05775,855.13264 115.8444,828.27872 115.05434,813.79602 C 114.65553,806.48539 107.33702,802.71879 104.82377,803.70726 C 106.67735,804.74845 109.99072,809.90937 110.15613,813.91704 C 110.74964,828.29708 108.66956,847.89133 109.59687,862.2537 C 110.63381,878.31399 118.56352,878.15338 118.53821,882.54454 L 118.18555,943.74099 C 118.13496,952.5194 110.03176,955.43221 109.82853,963.03139 L 107.95823,1032.9655 L 138.59782,1032.9655 L 136.72752,963.03139 C 136.52429,955.43221 128.42109,952.5194 128.3705,943.74099 L 128.01784,882.54454 C 127.99253,878.15338 135.92224,878.31399 136.95918,862.2537 C 137.88649,847.89133 135.80641,828.29708 136.39992,813.91704 C 136.56533,809.90937 139.8787,804.74845 141.73228,803.70726 C 139.21903,802.71879 131.90052,806.48539 131.50171,813.79602 C 130.71165,828.27872 130.4983,855.13264 129.86307,860.98912 C 129.3791,865.45108 125.86442,870.90289 123.27802,870.90289 z"
         id="path4629"
         style="fill:#ffffff;fill-opacity:1;fill-rule:evenodd;stroke:#000000;stroke-width:0.99921256;stroke-linecap:butt;stroke-linejoin:round;stroke-miterlimit:4;stroke-dasharray:none;stroke-opacity:1" />
      <path
         d="M 132.49678,972.67444 C 131.09697,963.87834 127.50075,957.61194 123.27802,957.61194 C 119.05487,957.61194 115.45876,963.87691 114.05927,972.67444"
         id="path4634"
         style="opacity:1;color:#000000;fill:#ffffff;fill-opacity:1;fill-rule:evenodd;stroke:#000000;stroke-width:0.99921256;stroke-linecap:round;stroke-linejoin:miter;marker:none;marker-start:none;marker-mid:none;marker-end:none;stroke-miterlimit:4;stroke-dasharray:none;stroke-dashoffset:0;stroke-opacity:1;visibility:visible;display:inline;overflow:visible;enable-background:accumulate" />
    </g>
    <path
       d="M 142.50958,860.65335 C 144.08855,858.697 147.66607,858.44569 147.66607,854.58884 C 147.66607,850.73199 144.08855,850.48067 142.50958,848.52432 C 140.93059,846.56794 141.83292,844.755 140.28319,842.81859 C 138.73346,840.8822 136.75379,841.3324 135.20406,839.396 C 133.65432,837.45958 134.52741,835.62669 132.97767,833.69029 C 131.42793,831.75387 129.44827,832.20408 127.89853,830.26767 C 126.3488,828.33126 126.38568,825.44363 123.58178,825.44363 C 120.77787,825.44363 120.81476,828.33126 119.26503,830.26767 C 117.71529,832.20408 115.73563,831.75387 114.18589,833.69029 C 112.63615,835.62669 113.50924,837.45958 111.9595,839.396 C 110.40977,841.3324 108.4301,840.8822 106.88037,842.81859 C 105.33064,844.755 106.23297,846.56794 104.65398,848.52432 C 103.07501,850.48067 99.497492,850.73199 99.497492,854.58884 C 99.497492,858.44569 103.07501,858.697 104.65398,860.65335 C 106.23297,862.60973 105.33064,864.42267 106.88037,866.35908 C 108.4301,868.29547 110.40977,867.84527 111.9595,869.78167 C 113.50924,871.71809 112.63615,873.55098 114.18589,875.48738 C 115.73563,877.4238 117.71529,876.97359 119.26503,878.91 C 120.81476,880.84641 120.77787,883.73404 123.58178,883.73404 C 126.38568,883.73404 126.3488,880.84641 127.89853,878.91 C 129.44827,876.97359 131.42793,877.4238 132.97767,875.48738 C 134.52741,873.55098 133.65432,871.71809 135.20406,869.78167 C 136.75379,867.84527 138.73346,868.29547 140.28319,866.35908 C 141.83292,864.42267 140.93059,862.60973 142.50958,860.65335 z"
       id="path5160"
       style="fill:#ffe739;fill-opacity:1;fill-rule:evenodd;stroke:#000000;stroke-width:0.99999988px;stroke-linecap:butt;stroke-linejoin:miter;stroke-opacity:1" />
    <use
       transform="translate(0,153.37006)"
       id="use5171"
       style="fill:#ffe739;fill-opacity:1"
       x="0"
       y="0"
       width="248.03149"
       height="248.03149"
       xlink:href="#path5160" />
    <use
       transform="translate(-63.188908,76.685027)"
       id="use5173"
       style="fill:#ffe739;fill-opacity:1"
       x="0"
       y="0"
       width="248.03149"
       height="248.03149"
       xlink:href="#path5160" />
    <use
       transform="translate(63.99838,76.685027)"
       id="use5175"
       style="fill:#ffe739;fill-opacity:1"
       x="0"
       y="0"
       width="248.03149"
       height="248.03149"
       xlink:href="#path5160" />
  </g>
</svg>

<svg xmlns="http://www.w3.org/2000/svg" xmlns:xlink="http://www.w3.org/1999/xlink" version="1.0" width="206.677" height="242.09"><g transform="translate(-20.648 -812.773)"><path d="m21.648 813.773 3.721 156.337c2.659 111.67 194.576 111.67 197.235 0l3.721-156.337H21.648z" style="fill:#2161c1;fill-opacity:1;fill-rule:evenodd;stroke:#000;stroke-width:1.99999988;stroke-linecap:butt;stroke-miterlimit:4;stroke-dashoffset:0;stroke-opacity:1"/><use transform="matrix(-1 0 0 1 247.973 0)" width="248.031" height="248.031" xlink:href="#a"/><g id="a" style="fill:#fff;fill-opacity:1"><path d="M123.278 870.903c-2.586 0-6.101-5.452-6.585-9.914-.635-5.856-.849-32.71-1.639-47.193-.398-7.31-7.717-11.077-10.23-10.089 1.853 1.041 5.167 6.202 5.332 10.21.594 14.38-1.486 33.974-.56 48.337 1.038 16.06 8.968 15.9 8.942 20.29l-.352 61.197c-.051 8.778-8.154 11.691-8.357 19.29l-1.87 69.935h30.639l-1.87-69.935c-.204-7.599-8.307-10.512-8.358-19.29l-.352-61.196c-.025-4.392 7.904-4.231 8.941-20.291.927-14.363-1.153-33.957-.56-48.337.166-4.008 3.48-9.169 5.333-10.21-2.513-.988-9.831 2.778-10.23 10.089-.79 14.483-1.004 41.337-1.639 47.193-.484 4.462-3.999 9.914-6.585 9.914z" style="fill:#fff;fill-opacity:1;fill-rule:evenodd;stroke:#000;stroke-width:.99921256;stroke-linecap:butt;stroke-linejoin:round;stroke-miterlimit:4;stroke-dasharray:none;stroke-opacity:1" transform="rotate(-40.475 126.663 930.102)"/><path d="M132.497 972.674c-1.4-8.796-4.996-15.062-9.219-15.062-4.223 0-7.82 6.265-9.219 15.062" style="opacity:1;color:#000;fill:#fff;fill-opacity:1;fill-rule:evenodd;stroke:#000;stroke-width:.99921256;stroke-linecap:round;stroke-linejoin:miter;marker:none;marker-start:none;marker-mid:none;marker-end:none;stroke-miterlimit:4;stroke-dasharray:none;stroke-dashoffset:0;stroke-opacity:1;visibility:visible;display:inline;overflow:visible;enable-background:accumulate" transform="rotate(-40.475 126.663 930.102)"/></g><path d="M142.51 860.653c1.579-1.956 5.156-2.207 5.156-6.064s-3.577-4.108-5.156-6.065c-1.58-1.956-.677-3.769-2.227-5.705-1.55-1.937-3.53-1.487-5.079-3.423-1.55-1.936-.677-3.77-2.226-5.706-1.55-1.936-3.53-1.486-5.08-3.422-1.55-1.937-1.512-4.824-4.316-4.824s-2.767 2.887-4.317 4.824c-1.55 1.936-3.53 1.486-5.08 3.422-1.549 1.937-.676 3.77-2.225 5.706-1.55 1.936-3.53 1.486-5.08 3.423-1.55 1.936-.647 3.749-2.226 5.705-1.579 1.957-5.157 2.208-5.157 6.065s3.578 4.108 5.157 6.064c1.579 1.957.677 3.77 2.226 5.706 1.55 1.936 3.53 1.486 5.08 3.423 1.55 1.936.676 3.769 2.226 5.705 1.55 1.937 3.53 1.487 5.079 3.423 1.55 1.936 1.513 4.824 4.317 4.824 2.804 0 2.767-2.888 4.317-4.824 1.55-1.936 3.529-1.486 5.079-3.423 1.55-1.936.676-3.769 2.226-5.705 1.55-1.937 3.53-1.487 5.08-3.423 1.549-1.936.647-3.75 2.226-5.706z" id="b" style="fill:#ffe739;fill-opacity:1;fill-rule:evenodd;stroke:#000;stroke-width:.99999988px;stroke-linecap:butt;stroke-linejoin:miter;stroke-opacity:1"/><use transform="translate(0 153.37)" style="fill:#ffe739;fill-opacity:1" width="248.031" height="248.031" xlink:href="#b"/><use transform="translate(-63.189 76.685)" style="fill:#ffe739;fill-opacity:1" width="248.031" height="248.031" xlink:href="#b"/><use transform="translate(63.998 76.685)" style="fill:#ffe739;fill-opacity:1" width="248.031" height="248.031" xlink:href="#b"/></g></svg>
